X:1
T:Title
%%score { ( 1 3 ) | ( 2 4 ) }
L:1/8
M:4/4
K:Eb
V:1 treble nm="Grand Piano"
V:3 treble 
V:2 bass 
V:4 bass 
V:1
 z4 z2[Q:1/4=100] E>F | G2 G2 GFEG | B2 c2 B2 [FA][EG] | [DF]2 [EG]2 [FA]2 [DA]2 | AGG_G =G2 E>F | %5
 G2 G2 GFEG | B2 c2 B2 [Ec]>[Ec] | [EB]2 E-[EA] [B,DG]2 [A,DF]2 |[M:3/4] E6 |[M:1/4] B>B | %10
[M:4/4] [Ge]2 [Ge]>[Ge] [Ge]2 [GB]2 | [Ac]>[ce] [Bd]>[Ac] [GB]2 G>G | A2 [DF]2 [Fd]3 [Dc] | %13
 B2 A2 GFEF | G2 A2 B3 B | [Ec]2 [Ee]2 [EB]2 [Ec]>[Ec] | [EB]4 [EG]2 [DF]2 |[M:3/4] E6 |] %18
V:2
 z4 z2 [E,G,]>[E,A,E] | [E,B,E]2 [E,B,E]2 [E,B,E][E,A,E][E,G,][E,B,E] | %2
 [E,G,E]2 [E,A,E]2 [E,G,E]2 [D,B,][E,B,] | [B,,B,]2 [B,,B,]2 [D,B,]2 [B,,B,]2 | %4
 [E,CE][E,B,E][E,B,E][E,=A,E] [E,B,E]2 [E,G,]>[E,_A,E] | %5
 [E,B,E]2 [E,B,E]2 [E,B,E][E,A,E][E,G,][E,B,E] | [E,G,E]2 [E,A,E]2 [E,G,E]2 [A,,A,]>[A,,A,] | %7
 [B,,G,]2 z C B,,2 B,,2 |[M:3/4] [E,G,]6 |[M:1/4] [E,G,E]>[E,G,E] | %10
[M:4/4] [E,B,]2 [E,B,]>[E,B,] [E,B,]2 [E,E]2 | [A,E]>[A,E] [A,E]>[A,E] [E,E]2 [E,B,E]>[E,B,E] | %12
 [F,B,D]2 [B,,B,]2 [B,,A,]3 [B,,A,] | [E,G,E]2 [E,CE]2 [E,B,E][E,A,E][E,G,][E,A,E] | %14
 [E,B,E]2 [F,B,D]2 [G,B,E]3 [E,G,E] | [A,,A,]2 [C,A,]2 [E,G,]2 [A,,A,]>[A,,A,] | %16
 [B,,G,]4 [B,,B,]2 [B,,A,]2 |[M:3/4] [E,G,]6 |] %18
V:3
 x8 | x8 | x8 | x8 | x8 | x8 | x8 | z2 .[B,G]2 z4 |[M:3/4] x6 |[M:1/4] x2 |[M:4/4] x8 | x8 | x8 | %13
 x8 | x8 | x8 | x8 |[M:3/4] x6 |] %18
V:4
 x8 | x8 | x8 | x8 | x8 | x8 | x8 | z2 B,,2 z4 |[M:3/4] x6 |[M:1/4] x2 |[M:4/4] x8 | x8 | x8 | x8 | %14
 x8 | x8 | x8 |[M:3/4] x6 |] %18

